X:1
T:Title
%%score ( 1 2 ) ( 3 4 )
L:1/8
Q:1/4=105
M:4/4
K:Eb
V:1 treble nm="Grand Piano, Soprano"
V:2 treble 
V:3 bass nm="Choir Pad, Stand on the Rock"
V:4 bass 
V:1
 [EG][FA] [GB]2 [GB]2 [GB]2 | [Ac][Ad] [Ge]2 [GB]2 [GB]2 | [GB][Ac] [GB]2 [FA]2 [FA]2 | %3
w: By~William~Howard~Doane * * * *|||
 [GB][Ac] [GB]2 [EG]2 [EG]2 | [EG][FA] [GB]2 [GB]2 [GB]2 | [Gc][Ad] [Ge]2 [GB]2 [GB]2 | %6
w: |||
 [GB][GB] [Ac]2 [Ac]2 [Ad]2 | cd [Ge]6 | [GB][GB] [Ge]2 [Ge]>[Ge] [Ge]2 | %9
w: |||
 [Ge][Bd] [Ac]2 [Ac]>[Ac] [Ac]2 | [Ac]>[Ac] [GB]2 [GB]2 [GB]2 | [FA][EG] [DF]6 | %12
w: |||
 E[EF] [EG]2 [EG][EG] [GB]2 | [GB][GB] [Ac]2 [Ac]2 [Ae]2 | [Ae][Ac] [GB]2 [EB]>[FA] [EG]2 | %15
w: |||
 [DF]2 E6- | E2 z2 z4 |] %17
w: ||
V:2
 x8 | x8 | x8 | x8 | x8 | x8 | x8 | A2 z2 z4 | x8 | x8 | x8 | x8 | x8 | x8 | x8 | x8 | x8 |] %17
V:3
 [E,B,][E,B,] [E,B,]2 [E,E]2 [E,E]2 | [E,E][E,B,] [E,B,]2 [E,E]2 [E,E]2 | %2
 [E,E][E,E] [D,B,]2 [B,,B,]2 [B,,B,]2 | [B,,B,][B,,B,] [E,B,]2 [E,B,]2 [E,B,]2 | %4
 [E,B,][E,B,] [E,B,]2 [E,E]2 [E,E]2 | [E,E][E,B,] [E,B,]2 [E,E]2 [E,E]2 | %6
 [E,E][E,E] [A,E]2 [A,E]2 [F,B,]2 | [B,,B,]2 [E,B,]6 | [E,E][E,E] [E,B,]2 [E,B,]>[E,B,] [E,B,]2 | %9
 [E,B,][G,E] [A,E]2 [A,E]>[A,E] [A,E]2 | [A,E]>[A,E] [E,E]2 [E,E]2 [E,E]2 | B,-[E,B,] [B,,B,]6 | %12
 [E,G,][E,A,] [E,B,]2 [E,B,][E,B,] [E,E]2 | [E,E][E,E] [A,E]2 [A,E]2 [A,C]2 | %14
 [A,C][A,E] [B,E]2 [G,B,]>[A,C] B,2 | [B,,A,]2 [E,G,]6- | [E,G,]2 z2 z4 |] %17
V:4
 x8 | x8 | x8 | x8 | x8 | x8 | x8 | x8 | x8 | x8 | x8 | .D,2 z2 z4 | x8 | x8 | x8 | x8 | x8 |] %17

